!!!COM: Music21
!!!OTL: Jota de Pontevedra
!!!OMV: pezas_jotas_jota-de-pontevedra-5_jota-de-pontevedra-partitura.musicxml
**kern
*I"Bagpipes
*I'Bag
*clefG^2
*k[]
*M3/8
=1
!LO:TX:a:t=Allegro
*MM110
!LO:TX:a:t=[quarter]=110
8r
16ggLL
16aa
16gg
16eeJJ
=
16ccLL
16ee
16gg
16eeJ
[8ccJ
=
8ccL]
16ggL
16aa
16gg
16eeJJ
=
16ccLL
16ee
16ff
16eeJ
[8ddJ
=
8ddL]
16ffL
16gg
16ff
16eeJJ
=
16ddLL
16ee
16ff
16ddJ
[8ddJ
=
8ddL]
16ffL
16gg
16ff
16ddJJ
!!linebreak:original
=
16eeLL
16dd
16b
16ddJ
8ccJ
=||
8r
16ccLL
16ee
16dd
16ffJJ
=
8eeL
16ccL
16ee
16dd
16ffJJ
=
8ee'L
16ccL
16dd
16ee
16ffJJ
=
16eeLL
16dd
16cc
16eeJ
[8ddJ
=
8ddL]
16bL
16dd
16cc
16eeJJ
=
8dd'L
16bL
16dd
16cc
16eeJJ
!!linebreak:original
=
8dd'L
16bL
16cc
16dd
16eeJJ
=
16eeLL
16dd
16b
16ddJ
[8ccJ
=
8ccL]
16ccL
16dd
16ee
16ffJJ
=||
8r
16ccLL
16ee
16dd
16ffJJ
=
8eeL
16ccL
16ee
16dd
16ffJJ
=
8ee'L
16ccL
16dd
16ee
16ffJJ
=
16eeLL
16dd
16cc
16eeJ
[8ddJ
!!linebreak:original
=
8ddL]
16bL
16dd
16cc
16eeJJ
=
8dd'L
16bL
16dd
16cc
16eeJJ
!!linebreak:original
=
8dd'L
16bL
16cc
16dd
16eeJJ
=
16eeLL
16dd
16b
16ddJ
8ccJ
=
8ccL
8b
8ccJ
=||
8ddL
8ee
[8ddJ
=
8ddL]
8.ee
16ddJk
=
8bL
8dd
[8ccJ
=
8ccL]
8cc
8ddJ
!!linebreak:original
=||
8eeL
8ff
[8eeJ
=
8eeL]
8.ff
16eeJk
=
8.ccL
16eeK
[8ddJ
=
8ddL]
8b
8ccJ
=
8ddL
8ee
[8ddJ
=
8ddL]
16eeL
16ff
16ee
16ddJJ
=
8bL
8dd
[8ccJ
=
8ccL]
8cc
8ddJ
!!linebreak:original
=||
8eeL
8ff
[8eeJ
=
8eeL]
8.ff
16eeJk
=
8.ccL
16eeK
[8ddJ
=
8ddL]
8b
8ccJ
=
8ddL
8ee
[8ddJ
=
8ddL]
16eeL
16ff
16ee
16ddJJ
=
8bL
8dd
[8ccJ
=
8cc]
4r
==
*-
